elementary-icon-theme/elementary/panel/22/system-restart-panel.svg

<?xml version="1.0" encoding="UTF-8" standalone="no"?>
<!-- Created with Inkscape (http://www.inkscape.org/) -->

<svg
   xmlns:dc="http://purl.org/dc/elements/1.1/"
   xmlns:cc="http://creativecommons.org/ns#"
   xmlns:rdf="http://www.w3.org/1999/02/22-rdf-syntax-ns#"
   xmlns:svg="http://www.w3.org/2000/svg"
   xmlns="http://www.w3.org/2000/svg"
   xmlns:xlink="http://www.w3.org/1999/xlink"
   xmlns:sodipodi="http://sodipodi.sourceforge.net/DTD/sodipodi-0.dtd"
   xmlns:inkscape="http://www.inkscape.org/namespaces/inkscape"
   version="1.0"
   width="22"
   height="22"
   id="svg3211"
   inkscape:version="0.47 r22583"
   sodipodi:docname="system-restart-panel.svg">
  <metadata
     id="metadata14">
    <rdf:RDF>
      <cc:Work
         rdf:about="">
        <dc:format>image/svg+xml</dc:format>
        <dc:type
           rdf:resource="http://purl.org/dc/dcmitype/StillImage" />
      </cc:Work>
    </rdf:RDF>
  </metadata>
  <sodipodi:namedview
     pagecolor="#ffffff"
     bordercolor="#666666"
     borderopacity="1"
     objecttolerance="10"
     gridtolerance="10"
     guidetolerance="10"
     inkscape:pageopacity="0"
     inkscape:pageshadow="2"
     inkscape:window-width="1280"
     inkscape:window-height="749"
     id="namedview12"
     showgrid="false"
     inkscape:zoom="12.954545"
     inkscape:cx="-1.1192982"
     inkscape:cy="11"
     inkscape:window-x="0"
     inkscape:window-y="24"
     inkscape:window-maximized="1"
     inkscape:current-layer="svg3211" />
  <defs
     id="defs3213">
    <linearGradient
       id="linearGradient3187">
      <stop
         id="stop3189"
         style="stop-color:#a60000;stop-opacity:1"
         offset="0" />
      <stop
         id="stop3191"
         style="stop-color:#ff1313;stop-opacity:1"
         offset="1" />
    </linearGradient>
    <linearGradient
       x1="12.939759"
       y1="5"
       x2="12.939759"
       y2="19.004065"
       id="linearGradient3190"
       xlink:href="#linearGradient3187"
       gradientUnits="userSpaceOnUse"
       gradientTransform="translate(-1,-1)" />
    <linearGradient
       gradientUnits="userSpaceOnUse"
       y2="19.049999"
       x2="6.0815783"
       y1="1.9996319"
       x1="5.8833332"
       id="linearGradient3644"
       xlink:href="#linearGradient2867-449-88-871-390-598-476-591-434-148-69"
       inkscape:collect="always" />
    <linearGradient
       y2="8.083209"
       x2="8.4964771"
       y1="-0.061573759"
       x1="8.4964771"
       gradientTransform="matrix(1.0526316,0,0,-0.9843625,2.5789475,10.939389)"
       gradientUnits="userSpaceOnUse"
       id="linearGradient3634"
       xlink:href="#linearGradient2867-449-88-871-390-598-476-591-434-148-69"
       inkscape:collect="always" />
    <linearGradient
       y2="2.5"
       x2="9.0195065"
       y1="15"
       x1="8.9423132"
       gradientTransform="translate(3.0000002,3)"
       gradientUnits="userSpaceOnUse"
       id="linearGradient3631"
       xlink:href="#linearGradient2867-449-88-871-390-598-476-591-434-148-69"
       inkscape:collect="always" />
    <linearGradient
       id="linearGradient2867-449-88-871-390-598-476-591-434-148-69-4">
      <stop
         id="stop4629-22-2"
         style="stop-color:#49a3d2;stop-opacity:1"
         offset="0" />
      <stop
         id="stop4631-4-9"
         style="stop-color:#3470b4;stop-opacity:1"
         offset="0.704952" />
      <stop
         id="stop4633-7-6"
         style="stop-color:#1b5699;stop-opacity:1"
         offset="1" />
    </linearGradient>
    <linearGradient
       id="linearGradient2867-449-88-871-390-598-476-591-434-148-69">
      <stop
         id="stop4629-22"
         style="stop-color:#49a3d2;stop-opacity:1"
         offset="0" />
      <stop
         id="stop4631-4"
         style="stop-color:#3470b4;stop-opacity:1"
         offset="0.704952" />
      <stop
         id="stop4633-7"
         style="stop-color:#1b5699;stop-opacity:1"
         offset="1" />
    </linearGradient>
    <linearGradient
       inkscape:collect="always"
       xlink:href="#linearGradient2867-449-88-871-390-598-476-591-434-148-69-4"
       id="linearGradient2878"
       gradientUnits="userSpaceOnUse"
       gradientTransform="translate(-1,-1)"
       x1="15.487127"
       y1="19.006313"
       x2="15.487127"
       y2="5" />
  </defs>
  <path
     style="opacity:0.10000000000000001;fill:#2a65a9;fill-opacity:1;fill-rule:nonzero;stroke:none;stroke-width:4;marker:none;visibility:visible;display:inline;overflow:visible;enable-background:accumulate"
     id="path3199"
     d="M 10.9375,3 C 10.407062,3.0272707 9.993028,3.4689075 10,4 l 0,1.21875 C 6.6446544,5.7256953 4,8.5078556 4,12 c 0,3.846695 3.153305,7 7,7 3.846695,0 7,-3.153305 7,-7 0.0032,-0.266173 -0.101179,-0.522368 -0.289405,-0.710595 C 17.522368,11.101179 17.266173,10.996838 17,11 l -2,0 C 14.733827,10.9968 14.477632,11.101179 14.289405,11.289405 14.101179,11.477632 13.996838,11.733827 14,12 14,13.673305 12.673305,15 11,15 9.326695,15 8,13.673305 8,12 8,10.719649 8.8823342,9.844913 10,9.40625 L 10,10 c 6.56e-4,0.356406 0.193153,0.684852 0.503788,0.859585 0.310635,0.174732 0.691287,0.168681 0.996212,-0.01583 l 5,-3 C 16.794183,7.6643058 16.973663,7.344592 16.973663,7 16.973663,6.655408 16.794183,6.3356942 16.5,6.15625 l -5,-3 C 11.332511,3.0487142 11.136456,2.9942544 10.9375,3 z" />
  <path
     style="opacity:0.7;fill:#ffffff;fill-opacity:1;fill-rule:evenodd;stroke:none"
     id="path3224"
     d="m 11,5 0,2 c -3.312,0 -6,2.688 -6,6 0,3.312 2.688,6 6,6 3.312,0 6,-2.688 6,-6 l -2,0 c 0,2.208 -1.792,4 -4,4 C 8.7920001,17 7,15.208 7,13 7,10.792 8.7919999,9 11,9 l 0,2 5,-3 -5,-3 z" />
  <path
     style="opacity:0.80000000000000004;fill:url(#linearGradient2878);fill-opacity:1;fill-rule:evenodd;stroke:none"
     id="path4199"
     d="m 11,4 0,2 c -3.312,0 -6,2.6879996 -6,6 0,3.312 2.688,6 6,6 3.312,0 6,-2.688 6,-6 l -2,0 c 0,2.208 -1.792,4 -4,4 C 8.7920001,16 7,14.208 7,12 7,9.792 8.7919999,8 11,8 l 0,2 5,-3 -5,-3 z" />
</svg>

<?xml version="1.0" encoding="UTF-8" standalone="no"?>
<!-- Created with Inkscape (http://www.inkscape.org/) -->
<svg
   xmlns:svg="http://www.w3.org/2000/svg"
   xmlns="http://www.w3.org/2000/svg"
   xmlns:xlink="http://www.w3.org/1999/xlink"
   version="1.0"
   width="22"
   height="22"
   id="svg3211">
  <defs
     id="defs3213">
    <linearGradient
       id="linearGradient3187">
      <stop
         id="stop3189"
         style="stop-color:#a60000;stop-opacity:1"
         offset="0" />
      <stop
         id="stop3191"
         style="stop-color:#ff1313;stop-opacity:1"
         offset="1" />
    </linearGradient>
    <linearGradient
       x1="12.939759"
       y1="5"
       x2="12.939759"
       y2="19.004065"
       id="linearGradient3190"
       xlink:href="#linearGradient3187"
       gradientUnits="userSpaceOnUse"
       gradientTransform="translate(-1,-1)" />
  </defs>
  <g
     id="layer1">
    <path
       d="M 11.9375,4 C 11.407062,4.0272707 10.993028,4.4689075 11,5 L 11,6.21875 C 7.6446544,6.7256953 5,9.5078556 5,13 C 5,16.846695 8.153305,20 12,20 C 15.846695,20 19,16.846695 19,13 C 19.003162,12.733827 18.898821,12.477632 18.710595,12.289405 C 18.522368,12.101179 18.266173,11.996838 18,12 L 16,12 C 15.733827,11.996838 15.477632,12.101179 15.289405,12.289405 C 15.101179,12.477632 14.996838,12.733827 15,13 C 15,14.673305 13.673305,16 12,16 C 10.326695,16 9,14.673305 9,13 C 9,11.719649 9.8823342,10.844913 11,10.40625 L 11,11 C 11.000656,11.356406 11.193153,11.684852 11.503788,11.859585 C 11.814423,12.034317 12.195075,12.028266 12.5,11.84375 L 17.5,8.84375 C 17.794183,8.6643058 17.973663,8.344592 17.973663,8 C 17.973663,7.655408 17.794183,7.3356942 17.5,7.15625 L 12.5,4.15625 C 12.332511,4.0487142 12.136456,3.9942544 11.9375,4 z"
       transform="translate(-1,-1)"
       id="path3199"
       style="opacity:0.1;fill:#f50000;fill-opacity:1;fill-rule:nonzero;stroke:none;stroke-width:4;stroke-linecap:round;stroke-linejoin:miter;marker:none;marker-start:none;marker-mid:none;marker-end:none;stroke-miterlimit:4;stroke-dasharray:none;stroke-dashoffset:0;stroke-opacity:1;visibility:visible;display:inline;overflow:visible;enable-background:accumulate" />
    <path
       d="M 11,5 L 11,7 C 7.688,7 5,9.688 5,13 C 5,16.312 7.688,19 11,19 C 14.312,19 17,16.312 17,13 L 15,13 C 15,15.208 13.208,17 11,17 C 8.7920001,17 7,15.208 7,13 C 7,10.792 8.7919999,9 11,9 L 11,11 L 16,8 L 11,5 z"
       id="path3224"
       style="opacity:0.7;fill:#ffffff;fill-opacity:1;fill-rule:evenodd;stroke:none;stroke-width:1px;stroke-linecap:butt;stroke-linejoin:miter;stroke-opacity:1" />
    <path
       d="M 11,4 L 11,6 C 7.688,6 5,8.6879996 5,12 C 5,15.312 7.688,18 11,18 C 14.312,18 17,15.312 17,12 L 15,12 C 15,14.208 13.208,16 11,16 C 8.7920001,16 7,14.208 7,12 C 7,9.792 8.7919999,8 11,8 L 11,10 L 16,7 L 11,4 z"
       id="path4199"
       style="opacity:0.8;fill:url(#linearGradient3190);fill-opacity:1;fill-rule:evenodd;stroke:none;stroke-width:1px;stroke-linecap:butt;stroke-linejoin:miter;stroke-opacity:1" />
  </g>
</svg>
